assets/img/icons/sdk.svg

<svg fill="none" height="64" viewBox="0 0 64 64" width="64" xmlns="http://www.w3.org/2000/svg"><path d="m4 18h56v34c0 1.1046-.8954 2-2 2h-52c-1.10457 0-2-.8954-2-2z" fill="#fff"/><path clip-rule="evenodd" d="m58 20h-52v32h52zm-54-2v34c0 1.1046.89543 2 2 2h52c1.1046 0 2-.8954 2-2v-34z" fill="#000" fill-rule="evenodd"/><path d="m4 12c0-1.1046.89543-2 2-2h52c1.1046 0 2 .8954 2 2v8h-56z" fill="#c4f0f5"/><path clip-rule="evenodd" d="m58 12h-52v6h52zm-52-2c-1.10457 0-2 .8954-2 2v8h56v-8c0-1.1046-.8954-2-2-2z" fill="#000" fill-rule="evenodd"/><path d="m10 15c0 .5523-.44772 1-1 1s-1-.4477-1-1 .44772-1 1-1 1 .4477 1 1z" fill="#000"/><path d="m14 15c0 .5523-.4477 1-1 1s-1-.4477-1-1 .4477-1 1-1 1 .4477 1 1z" fill="#000"/><path d="m18 15c0 .5523-.4477 1-1 1s-1-.4477-1-1 .4477-1 1-1 1 .4477 1 1z" fill="#000"/><g clip-rule="evenodd" fill-rule="evenodd"><path d="m29.0106 22.7575c.1113-.4452.5113-.7575.9702-.7575h4.0384c.4589 0 .8589.3123.9702.7575l.5313 2.1254c.0821.3282.3257.5896.6397.7153.0518.0207.1034.0418.1549.0633.309.1292.6621.115.9493-.0573l2.2588-1.3552c.3935-.2361.8972-.1741 1.2216.1503l2.8556 2.8557c.3245.3244.3865.8281.1504 1.2216l-1.3552 2.2587c-.1724.2872-.1865.6404-.0573.9494.0215.0514.0426.1031.0633.1549.1257.314.3871.5576.7153.6397l2.1254.5313c.4452.1113.7575.5113.7575.9702v4.0384c0 .4589-.3123.8589-.7575.9702l-2.1254.5313c-.3282.0821-.5896.3257-.7153.6397-.0207.0518-.0418.1034-.0633.1549-.1292.309-.115.6621.0573.9493l1.3553 2.2588c.236.3935.174.8972-.1504 1.2216l-2.8556 2.8557c-.3245.3244-.8282.3864-1.2216.1503l-2.2589-1.3552c-.2871-.1724-.6403-.1865-.9493-.0573-.0515.0215-.1031.0426-.1549.0633-.314.1257-.5576.3871-.6397.7153l-.5313 2.1254c-.1113.4452-.5113.7575-.9702.7575h-4.0384c-.4589 0-.8589-.3123-.9702-.7575l-.5313-2.1254c-.0821-.3282-.3257-.5896-.6397-.7153-.0518-.0207-.1034-.0418-.1549-.0633-.309-.1292-.6621-.115-.9493.0573l-2.2588 1.3553c-.3935.236-.8972.174-1.2216-.1504l-2.8557-2.8556c-.3244-.3245-.3864-.8282-.1503-1.2216l1.3552-2.2589c.1724-.2871.1865-.6403.0573-.9493-.0215-.0515-.0426-.1031-.0633-.1549-.1257-.314-.3871-.5576-.7153-.6397l-2.1254-.5313c-.4452-.1113-.7575-.5113-.7575-.9702v-4.0384c0-.4589.3123-.8589.7575-.9702l2.1254-.5313c.3282-.0821.5896-.3257.7153-.6397.0207-.0518.0418-.1034.0633-.1549.1292-.309.1151-.6622-.0573-.9493l-1.3552-2.2589c-.2361-.3934-.1741-.8971.1503-1.2216l2.8557-2.8556c.3244-.3244.8281-.3864 1.2216-.1504l2.2588 1.3553c.2872.1723.6403.1865.9493.0573.0515-.0215.1031-.0426.1549-.0633.314-.1257.5576-.3871.6397-.7153zm2.9894 16.9758c2.0619 0 3.7333-1.6714 3.7333-3.7333s-1.6714-3.7333-3.7333-3.7333-3.7333 1.6714-3.7333 3.7333 1.6714 3.7333 3.7333 3.7333z" fill="#fff"/><path d="m30.7616 24-.342 1.368c-.2504 1.0016-.9768 1.7427-1.8367 2.0869-.0425.017-.0848.0344-.127.052-.8466.3537-1.873.3382-2.7495-.1877l-1.5893-.9536-1.7515 1.7515.9536 1.5893c.5259.8765.5415 1.9029.1877 2.7495-.0176.0422-.035.0845-.052.127-.3442.8599-1.0853 1.5863-2.0869 1.8367l-1.368.342v2.4768l1.368.342c1.0016.2504 1.7427.9768 2.0869 1.8367.017.0425.0344.0848.052.127.3538.8466.3382 1.873-.1877 2.7495l-.9536 1.5893 1.7515 1.7515 1.5893-.9536c.8765-.5259 1.9029-.5414 2.7495-.1877.0422.0176.0845.035.127.052.8599.3442 1.5863 1.0853 1.8367 2.0869l.342 1.368h2.4768l.342-1.368c.2504-1.0016.9768-1.7427 1.8367-2.0869.0425-.017.0848-.0344.127-.052.8466-.3538 1.873-.3382 2.7495.1877l1.5893.9536 1.7515-1.7515-.9536-1.5893c-.5259-.8765-.5414-1.9029-.1877-2.7495.0176-.0422.035-.0845.052-.127.3442-.8599 1.0853-1.5863 2.0869-1.8367l1.368-.342v-2.4768l-1.368-.342c-1.0016-.2504-1.7427-.9768-2.0869-1.8367-.017-.0425-.0344-.0848-.052-.127-.3538-.8466-.3382-1.873.1877-2.7496l.9535-1.5892-1.7514-1.7515-1.5893.9536c-.8765.5259-1.9029.5414-2.7495.1877-.0422-.0176-.0845-.035-.127-.052-.8599-.3442-1.5863-1.0853-1.8367-2.0869l-.342-1.368zm6.9717 12c0 3.1664-2.5669 5.7333-5.7333 5.7333s-5.7333-2.5669-5.7333-5.7333 2.5669-5.7333 5.7333-5.7333 5.7333 2.5669 5.7333 5.7333zm-7.7525-14c-.4589 0-.8589.3123-.9702.7575l-.5313 2.1254c-.0821.3282-.3257.5896-.6397.7153-.0518.0207-.1034.0418-.1549.0633-.309.1292-.6621.115-.9493-.0573l-2.2588-1.3553c-.3935-.236-.8972-.174-1.2216.1504l-2.8557 2.8556c-.3244.3245-.3864.8282-.1503 1.2216l1.3552 2.2589c.1724.2871.1865.6403.0573.9493-.0215.0515-.0426.1031-.0633.1549-.1257.314-.3871.5576-.7153.6397l-2.1254.5313c-.4452.1113-.7575.5113-.7575.9702v4.0384c0 .4589.3123.8589.7575.9702l2.1254.5313c.3282.0821.5896.3257.7153.6397.0207.0518.0418.1034.0633.1549.1292.309.1151.6622-.0573.9493l-1.3552 2.2589c-.2361.3934-.1741.8971.1503 1.2216l2.8557 2.8556c.3244.3244.8281.3864 1.2216.1504l2.2588-1.3553c.2872-.1723.6403-.1865.9493-.0573.0515.0215.1031.0426.1549.0633.314.1257.5576.3871.6397.7153l.5313 2.1254c.1113.4452.5113.7575.9702.7575h4.0384c.4589 0 .8589-.3123.9702-.7575l.5313-2.1254c.0821-.3282.3257-.5896.6397-.7153.0518-.0207.1034-.0418.1549-.0633.309-.1292.6622-.1151.9493.0573l2.2589 1.3552c.3934.2361.8971.1741 1.2216-.1503l2.8556-2.8557c.3244-.3244.3864-.8281.1504-1.2216l-1.3553-2.2588c-.1723-.2872-.1865-.6403-.0573-.9493.0215-.0515.0426-.1031.0633-.1549.1257-.314.3871-.5576.7153-.6397l2.1254-.5313c.4452-.1113.7575-.5113.7575-.9702v-4.0384c0-.4589-.3123-.8589-.7575-.9702l-2.1254-.5313c-.3282-.0821-.5896-.3257-.7153-.6397-.0207-.0518-.0418-.1035-.0633-.1549-.1292-.309-.1151-.6622.0573-.9494l1.3552-2.2587c.2361-.3935.1741-.8972-.1504-1.2216l-2.8556-2.8557c-.3244-.3244-.8281-.3864-1.2216-.1503l-2.2588 1.3552c-.2872.1723-.6403.1865-.9493.0573-.0515-.0215-.1031-.0426-.1549-.0633-.314-.1257-.5576-.3871-.6397-.7153l-.5313-2.1254c-.1113-.4452-.5113-.7575-.9702-.7575zm5.7525 14c0 2.0619-1.6714 3.7333-3.7333 3.7333s-3.7333-1.6714-3.7333-3.7333 1.6714-3.7333 3.7333-3.7333 3.7333 1.6714 3.7333 3.7333z" fill="#000"/><path d="m32 42c3.3137 0 6-2.6863 6-6s-2.6863-6-6-6-6 2.6863-6 6 2.6863 6 6 6zm0 3c4.9706 0 9-4.0294 9-9s-4.0294-9-9-9-9 4.0294-9 9 4.0294 9 9 9z" fill="#c4f0f5"/><path d="m52.8512 27.4001c1.2756 2.0683 2.1488 4.838 2.1488 8.5999 0 5.6-2.6511 8.9664-5.1337 10.6858l1.3763.3441-.4851 1.9402-4.9701-1.2425 1.2425-4.9701 1.9403.485-.4922 1.9689c2.0553-1.3198 4.522-4.1491 4.522-9.2114 0-3.4381-.7934-5.8351-1.8511-7.5501-1.0607-1.7197-2.428-2.8201-3.6789-3.6019l1.06-1.696c1.4158.8849 3.0485 2.1845 4.3212 4.2481z" fill="#000"/><path d="m11.1488 44.5999c-1.27561-2.0683-2.14883-4.838-2.14883-8.5999 0-5.6 2.65113-8.9664 5.13373-10.6858l-1.3763-.3441.4851-1.9402 4.9701 1.2425-1.2425 4.9701-1.9403-.485.4922-1.9689c-2.0553 1.3198-4.522 4.1491-4.522 9.2114 0 3.4381.7934 5.8351 1.8511 7.5501 1.0607 1.7197 2.428 2.8201 3.6789 3.6019l-1.06 1.696c-1.4158-.8849-3.0485-2.1845-4.3212-4.2481z" fill="#000"/></g></svg>

<svg width="64" height="64" viewBox="0 0 64 64" fill="none" xmlns="http://www.w3.org/2000/svg">
<path d="M4 18H60V52C60 53.1046 59.1046 54 58 54H6C4.89543 54 4 53.1046 4 52V18Z" fill="white"/>
<path fill-rule="evenodd" clip-rule="evenodd" d="M58 20H6L6 52H58V20ZM4 18V52C4 53.1046 4.89543 54 6 54H58C59.1046 54 60 53.1046 60 52V18H4Z" fill="black"/>
<path d="M4 12C4 10.8954 4.89543 10 6 10H58C59.1046 10 60 10.8954 60 12V20H4V12Z" fill="#C4F0F5"/>
<path fill-rule="evenodd" clip-rule="evenodd" d="M58 12H6V18H58V12ZM6 10C4.89543 10 4 10.8954 4 12V20H60V12C60 10.8954 59.1046 10 58 10H6Z" fill="black"/>
<path d="M10 15C10 15.5523 9.55228 16 9 16C8.44772 16 8 15.5523 8 15C8 14.4477 8.44772 14 9 14C9.55228 14 10 14.4477 10 15Z" fill="black"/>
<path d="M14 15C14 15.5523 13.5523 16 13 16C12.4477 16 12 15.5523 12 15C12 14.4477 12.4477 14 13 14C13.5523 14 14 14.4477 14 15Z" fill="black"/>
<path d="M18 15C18 15.5523 17.5523 16 17 16C16.4477 16 16 15.5523 16 15C16 14.4477 16.4477 14 17 14C17.5523 14 18 14.4477 18 15Z" fill="black"/>
<path fill-rule="evenodd" clip-rule="evenodd" d="M29.0106 22.7575C29.1219 22.3123 29.5219 22 29.9808 22H34.0192C34.4781 22 34.8781 22.3123 34.9894 22.7575L35.5207 24.8829C35.6028 25.2111 35.8464 25.4725 36.1604 25.5982C36.2122 25.6189 36.2638 25.64 36.3153 25.6615C36.6243 25.7907 36.9774 25.7765 37.2646 25.6042L39.5234 24.249C39.9169 24.0129 40.4206 24.0749 40.745 24.3993L43.6006 27.255C43.9251 27.5794 43.9871 28.0831 43.751 28.4766L42.3958 30.7353C42.2234 31.0225 42.2093 31.3757 42.3385 31.6847C42.36 31.7361 42.3811 31.7878 42.4018 31.8396C42.5275 32.1536 42.7889 32.3972 43.1171 32.4793L45.2425 33.0106C45.6877 33.1219 46 33.5219 46 33.9808V38.0192C46 38.4781 45.6877 38.8781 45.2425 38.9894L43.1171 39.5207C42.7889 39.6028 42.5275 39.8464 42.4018 40.1604C42.3811 40.2122 42.36 40.2638 42.3385 40.3153C42.2093 40.6243 42.2235 40.9774 42.3958 41.2646L43.7511 43.5234C43.9871 43.9169 43.9251 44.4206 43.6007 44.745L40.7451 47.6007C40.4206 47.9251 39.9169 47.9871 39.5235 47.751L37.2646 46.3958C36.9775 46.2234 36.6243 46.2093 36.3153 46.3385C36.2638 46.36 36.2122 46.3811 36.1604 46.4018C35.8464 46.5275 35.6028 46.7889 35.5207 47.1171L34.9894 49.2425C34.8781 49.6877 34.4781 50 34.0192 50H29.9808C29.5219 50 29.1219 49.6877 29.0106 49.2425L28.4793 47.1171C28.3972 46.7889 28.1536 46.5275 27.8396 46.4018C27.7878 46.3811 27.7362 46.36 27.6847 46.3385C27.3757 46.2093 27.0226 46.2235 26.7354 46.3958L24.4766 47.7511C24.0831 47.9871 23.5794 47.9251 23.255 47.6007L20.3993 44.7451C20.0749 44.4206 20.0129 43.9169 20.249 43.5235L21.6042 41.2646C21.7766 40.9775 21.7907 40.6243 21.6615 40.3153C21.64 40.2638 21.6189 40.2122 21.5982 40.1604C21.4725 39.8464 21.2111 39.6028 20.8829 39.5207L18.7575 38.9894C18.3123 38.8781 18 38.4781 18 38.0192V33.9808C18 33.5219 18.3123 33.1219 18.7575 33.0106L20.8829 32.4793C21.2111 32.3972 21.4725 32.1536 21.5982 31.8396C21.6189 31.7878 21.64 31.7362 21.6615 31.6847C21.7907 31.3757 21.7766 31.0225 21.6042 30.7354L20.249 28.4765C20.0129 28.0831 20.0749 27.5794 20.3993 27.2549L23.255 24.3993C23.5794 24.0749 24.0831 24.0129 24.4766 24.2489L26.7354 25.6042C27.0226 25.7765 27.3757 25.7907 27.6847 25.6615C27.7362 25.64 27.7878 25.6189 27.8396 25.5982C28.1536 25.4725 28.3972 25.2111 28.4793 24.8829L29.0106 22.7575ZM32 39.7333C34.0619 39.7333 35.7333 38.0619 35.7333 36C35.7333 33.9381 34.0619 32.2667 32 32.2667C29.9381 32.2667 28.2667 33.9381 28.2667 36C28.2667 38.0619 29.9381 39.7333 32 39.7333Z" fill="white"/>
<path fill-rule="evenodd" clip-rule="evenodd" d="M30.7616 24L30.4196 25.368C30.1692 26.3696 29.4428 27.1107 28.5829 27.4549C28.5404 27.4719 28.4981 27.4893 28.4559 27.5069C27.6093 27.8606 26.5829 27.8451 25.7064 27.3192L24.1171 26.3656L22.3656 28.1171L23.3192 29.7064C23.8451 30.5829 23.8607 31.6093 23.5069 32.4559C23.4893 32.4981 23.4719 32.5404 23.4549 32.5829C23.1107 33.4428 22.3696 34.1692 21.368 34.4196L20 34.7616V37.2384L21.368 37.5804C22.3696 37.8308 23.1107 38.5572 23.4549 39.4171C23.4719 39.4596 23.4893 39.5019 23.5069 39.5441C23.8607 40.3907 23.8451 41.4171 23.3192 42.2936L22.3656 43.8829L24.1171 45.6344L25.7064 44.6808C26.5829 44.1549 27.6093 44.1394 28.4559 44.4931C28.4981 44.5107 28.5404 44.5281 28.5829 44.5451C29.4428 44.8893 30.1692 45.6304 30.4196 46.632L30.7616 48H33.2384L33.5804 46.632C33.8308 45.6304 34.5572 44.8893 35.4171 44.5451C35.4596 44.5281 35.5019 44.5107 35.5441 44.4931C36.3907 44.1393 37.4171 44.1549 38.2936 44.6808L39.8829 45.6344L41.6344 43.8829L40.6808 42.2936C40.1549 41.4171 40.1394 40.3907 40.4931 39.5441C40.5107 39.5019 40.5281 39.4596 40.5451 39.4171C40.8893 38.5572 41.6304 37.8308 42.632 37.5804L44 37.2384V34.7616L42.632 34.4196C41.6304 34.1692 40.8893 33.4428 40.5451 32.5829C40.5281 32.5404 40.5107 32.4981 40.4931 32.4559C40.1393 31.6093 40.1549 30.5829 40.6808 29.7063L41.6343 28.1171L39.8829 26.3656L38.2936 27.3192C37.4171 27.8451 36.3907 27.8606 35.5441 27.5069C35.5019 27.4893 35.4596 27.4719 35.4171 27.4549C34.5572 27.1107 33.8308 26.3696 33.5804 25.368L33.2384 24H30.7616ZM37.7333 36C37.7333 39.1664 35.1664 41.7333 32 41.7333C28.8336 41.7333 26.2667 39.1664 26.2667 36C26.2667 32.8336 28.8336 30.2667 32 30.2667C35.1664 30.2667 37.7333 32.8336 37.7333 36ZM29.9808 22C29.5219 22 29.1219 22.3123 29.0106 22.7575L28.4793 24.8829C28.3972 25.2111 28.1536 25.4725 27.8396 25.5982C27.7878 25.6189 27.7362 25.64 27.6847 25.6615C27.3757 25.7907 27.0226 25.7765 26.7354 25.6042L24.4766 24.2489C24.0831 24.0129 23.5794 24.0749 23.255 24.3993L20.3993 27.2549C20.0749 27.5794 20.0129 28.0831 20.249 28.4765L21.6042 30.7354C21.7766 31.0225 21.7907 31.3757 21.6615 31.6847C21.64 31.7362 21.6189 31.7878 21.5982 31.8396C21.4725 32.1536 21.2111 32.3972 20.8829 32.4793L18.7575 33.0106C18.3123 33.1219 18 33.5219 18 33.9808V38.0192C18 38.4781 18.3123 38.8781 18.7575 38.9894L20.8829 39.5207C21.2111 39.6028 21.4725 39.8464 21.5982 40.1604C21.6189 40.2122 21.64 40.2638 21.6615 40.3153C21.7907 40.6243 21.7766 40.9775 21.6042 41.2646L20.249 43.5235C20.0129 43.9169 20.0749 44.4206 20.3993 44.7451L23.255 47.6007C23.5794 47.9251 24.0831 47.9871 24.4766 47.7511L26.7354 46.3958C27.0226 46.2235 27.3757 46.2093 27.6847 46.3385C27.7362 46.36 27.7878 46.3811 27.8396 46.4018C28.1536 46.5275 28.3972 46.7889 28.4793 47.1171L29.0106 49.2425C29.1219 49.6877 29.5219 50 29.9808 50H34.0192C34.4781 50 34.8781 49.6877 34.9894 49.2425L35.5207 47.1171C35.6028 46.7889 35.8464 46.5275 36.1604 46.4018C36.2122 46.3811 36.2638 46.36 36.3153 46.3385C36.6243 46.2093 36.9775 46.2234 37.2646 46.3958L39.5235 47.751C39.9169 47.9871 40.4206 47.9251 40.7451 47.6007L43.6007 44.745C43.9251 44.4206 43.9871 43.9169 43.7511 43.5234L42.3958 41.2646C42.2235 40.9774 42.2093 40.6243 42.3385 40.3153C42.36 40.2638 42.3811 40.2122 42.4018 40.1604C42.5275 39.8464 42.7889 39.6028 43.1171 39.5207L45.2425 38.9894C45.6877 38.8781 46 38.4781 46 38.0192V33.9808C46 33.5219 45.6877 33.1219 45.2425 33.0106L43.1171 32.4793C42.7889 32.3972 42.5275 32.1536 42.4018 31.8396C42.3811 31.7878 42.36 31.7361 42.3385 31.6847C42.2093 31.3757 42.2234 31.0225 42.3958 30.7353L43.751 28.4766C43.9871 28.0831 43.9251 27.5794 43.6006 27.255L40.745 24.3993C40.4206 24.0749 39.9169 24.0129 39.5234 24.249L37.2646 25.6042C36.9774 25.7765 36.6243 25.7907 36.3153 25.6615C36.2638 25.64 36.2122 25.6189 36.1604 25.5982C35.8464 25.4725 35.6028 25.2111 35.5207 24.8829L34.9894 22.7575C34.8781 22.3123 34.4781 22 34.0192 22H29.9808ZM35.7333 36C35.7333 38.0619 34.0619 39.7333 32 39.7333C29.9381 39.7333 28.2667 38.0619 28.2667 36C28.2667 33.9381 29.9381 32.2667 32 32.2667C34.0619 32.2667 35.7333 33.9381 35.7333 36Z" fill="black"/>
<path fill-rule="evenodd" clip-rule="evenodd" d="M32 42C35.3137 42 38 39.3137 38 36C38 32.6863 35.3137 30 32 30C28.6863 30 26 32.6863 26 36C26 39.3137 28.6863 42 32 42ZM32 45C36.9706 45 41 40.9706 41 36C41 31.0294 36.9706 27 32 27C27.0294 27 23 31.0294 23 36C23 40.9706 27.0294 45 32 45Z" fill="#C4F0F5"/>
<path fill-rule="evenodd" clip-rule="evenodd" d="M52.8512 27.4001C54.1268 29.4684 55 32.2381 55 36C55 41.6 52.3489 44.9664 49.8663 46.6858L51.2426 47.0299L50.7575 48.9701L45.7874 47.7276L47.0299 42.7575L48.9702 43.2425L48.478 45.2114C50.5333 43.8916 53 41.0623 53 36C53 32.5619 52.2066 30.1649 51.1489 28.4499C50.0882 26.7302 48.7209 25.6298 47.47 24.848L48.53 23.152C49.9458 24.0369 51.5785 25.3365 52.8512 27.4001Z" fill="black"/>
<path fill-rule="evenodd" clip-rule="evenodd" d="M11.1488 44.5999C9.87319 42.5316 8.99997 39.7619 8.99997 36C8.99997 30.4 11.6511 27.0336 14.1337 25.3142L12.7574 24.9701L13.2425 23.0299L18.2126 24.2724L16.9701 29.2425L15.0298 28.7575L15.522 26.7886C13.4667 28.1084 11 30.9377 11 36C11 39.4381 11.7934 41.8351 12.8511 43.5501C13.9118 45.2698 15.2791 46.3702 16.53 47.152L15.47 48.848C14.0542 47.9631 12.4215 46.6635 11.1488 44.5999Z" fill="black"/>
</svg>
